X: 1
T: the Gannet
C: Bert Murray
R: jig
B: Bon Accord 4
M: 6/8
L: 1/8
K: A
e \
| "A"AEA cAc | ece a2e | "D"fga "A"ecA | "Bm"edc "E7"B2c \
| "A"AEA cAc | ece a2a | "Bm"gfe "D7"dcB | "A"A3 A2 :|
e \
| "D"fdf faf | "A"ece eae | "D"def "A"ecA | "Bm"edc "E7"B2e \
| "D"fdf faf | "A"ece a2a | "Bm"gfe "D7"dcB | "A"A3 A2 |]
e \
| "D"fdf faf | "A"ecA Ace | "D"fga "A"ecA | "Bm"edc "E7"B2c \
| "A"AEA cAc | ece a2a | "Bm"gfe "D7"dcB | "A"A3 A2 |]

%%sep 1 1 500

